X: 3
T: Gurteen Cross
T: The Ballyfin Polka #3
S: "The Chieftains: Water from the Well", track 14, tune 3 of 3
S: https://thesession.org/recordings/display/192
M: 2/4
L: 1/8
R: polka
K: Gmaj
|: D/ |\
GB AB/A/ | Gg e/f/g/e/ | dB AG/A/ | BB/A/ G/F/E/D/ |
GB AB/A/ | Gg e/f/g/e/ | dB AG/A/ | BG G3/ :|
|: A/ |\
Bd g>d | Bd g>d | Bd ge | f2 f>g |
ag e/f/g/e/ | dB AG/A/ | Be d/B/A/B/ | G2- G3/ :|

# Posted by ceolachan 4 years ago.

